X: 10
T: No_116_As_the_Hawk_Soars.krn
N: Derived from No_116_As_the_Hawk_Soars.krn
%%abc-version 2.0
%%abcx-abcm2ps-target-version 5.9.1 (29 Sep 2008)
%%abc-creator hum2abc beta
%%abcx-conversion-date 2019/03/15 08:29:13
%%humdrum-veritas 425842531
%%humdrum-veritas-data 543347288
%%linebreak <none>
%%barnumbers 0
L: 1/8
M: 2/4
%%staves {1 2}
V: 1 clef=bass
V: 2 clef=bass
K: A
[V:1] [K:clef=bass][M:2/4]EEE2 | 
[V:2] [K:clef=bass][M:2/4]z4 | 
[V:1] EC (3ECA, ||  
[V:2] (3!accent!G,, z G,, (3!accent!G,, z G,, ||  
[V:1] [M:3/4]A,6 ||  
[V:2] [M:3/4]z6 ||  
[V:1] [M:2/4]{/A,} F,A, A,A, | 
[V:2] [M:2/4]z4 | 
[V:1] A,3A, ||  
[V:2] z4 ||  
[V:1] [M:3/4]A,6 ||  
[V:2] [M:3/4]z6 ||  
[V:1] [M:2/4]EEE2- | 
[V:2] [M:2/4]z4 | 
[V:1] EC (3ECA, ||  
[V:2] z4 ||  
[V:1] [M:3/4]A,6 ||  
[V:2] [M:3/4]z6 ||  
[V:1] [M:2/4]{/A,} F,A,A,2 | 
[V:2] [M:2/4]z4 | 
[V:1] A,2-A,3/A,/ ||  
[V:2] z4 ||  
[V:1] [M:3/4]A,6 | 
[V:2] [M:3/4]z6 | 
[V:1] EEE4 ||  
[V:2] z6 ||  
[V:1] [M:2/4]ECA,2- | 
[V:2] [M:2/4]z4 | 
[V:1] A,3A, | 
[V:2] z4 | 
[V:1] F,A,A,2- | 
[V:2] z4 | 
[V:1] A,A, (3A,A,F, | 
[V:2] z4 | 
[V:1] E,4- | 
[V:2] z4 | 
[V:1] E,3E, | 
[V:2] z4 | 
[V:1] F,/A,3/A,2- | 
[V:2] z4 | 
[V:1] A,2F,2 | 
[V:2] z4 | 
[V:1] {/A,} F,/E,3/C,2 | 
[V:2] z4 | 
[V:1] E,/C,3/-C,2 ||  
[V:2] z4 ||  
[V:1] [M:3/4]A,,3/A,,/A,,3A,, | 
[V:2] [M:3/4]z6 | 
[V:1] A,,6 |]  
[V:2] z6 |]  



